X: 1
T:The Blackbird  "CYMRU"
M:C
L:1/8
Q:80
C:Trad.
S:Reel
K:HP
[| ag|
{a}gA{g}dfge{g}fd|
{g}ec{gcecG}c2{g}ef{a}ge|  !
a{g}a{g}agag{a}ed|
{gcd}c2{e}A2{GAG}A2ag| |
{a}gA{g}dfge{g}fd|  !
{g}ec{gcecG}c2{g}ef{a}ge|
a{g}a{g}agag{a}ed|
{g}ce{g}dcB{G}A3B| |  !
{gcd}cBAB{g}c{d}A{g}Bd|
e{g}e{A}ed{g}cd{g}ec|
{gdedG}d2{g}dc{g}df{g}ed|  !
{gcd}c2{e}A2{GAG}A2B2|]
